Simply-Green-Circles/scalable/apps/opera-beta.svg

<?xml version="1.0" encoding="UTF-8" standalone="no"?>
<svg
   xmlns:dc="http://purl.org/dc/elements/1.1/"
   xmlns:cc="http://creativecommons.org/ns#"
   xmlns:rdf="http://www.w3.org/1999/02/22-rdf-syntax-ns#"
   xmlns:svg="http://www.w3.org/2000/svg"
   xmlns="http://www.w3.org/2000/svg"
   xmlns:sodipodi="http://sodipodi.sourceforge.net/DTD/sodipodi-0.dtd"
   xmlns:inkscape="http://www.inkscape.org/namespaces/inkscape"
   width="48"
   height="48"
   viewBox="0 0 12.7 12.7"
   version="1.1"
   id="svg6"
   sodipodi:docname="opera-beta.svg"
   inkscape:version="0.92.4 (5da689c313, 2019-01-14)">
  <metadata
     id="metadata12">
    <rdf:RDF>
      <cc:Work
         rdf:about="">
        <dc:format>image/svg+xml</dc:format>
        <dc:type
           rdf:resource="http://purl.org/dc/dcmitype/StillImage" />
        <dc:title></dc:title>
      </cc:Work>
    </rdf:RDF>
  </metadata>
  <defs
     id="defs10" />
  <sodipodi:namedview
     pagecolor="#ffffff"
     bordercolor="#666666"
     borderopacity="1"
     objecttolerance="10"
     gridtolerance="10"
     guidetolerance="10"
     inkscape:pageopacity="0"
     inkscape:pageshadow="2"
     inkscape:window-width="1087"
     inkscape:window-height="480"
     id="namedview8"
     showgrid="false"
     inkscape:zoom="4.9166667"
     inkscape:cx="2.1355932"
     inkscape:cy="24"
     inkscape:window-x="0"
     inkscape:window-y="25"
     inkscape:window-maximized="0"
     inkscape:current-layer="svg6" />
  <path
     d="m 6.335,9.592 c 1.32,0 1.44,-2 1.44,-3.346 0,-1.549 -0.232,-3.239 -1.44,-3.239 -1.207,0 -1.41,1.797 -1.41,3.24 0,1.333 0.108,3.345 1.41,3.345 z m 0,-7.235 c 2.162,0 3.78,1.563 3.78,3.956 0,2.113 -1.533,4.03 -3.78,4.03 -2.225,0 -3.75,-1.918 -3.75,-4.03 0,-2.374 1.568,-3.956 3.75,-3.956 z"
     id="path2"
     inkscape:connector-curvature="0"
     style="clip-rule:evenodd;opacity:0.75199998;fill:#ff0000;fill-rule:evenodd" />
  <path
     d="M 6.35,0.083 A 6.267,6.267 0 0 0 0.084,6.35 6.267,6.267 0 0 0 6.352,12.617 6.267,6.267 0 0 0 12.618,6.35 6.267,6.267 0 0 0 6.351,0.083 Z M 6.333,1.015 a 5.388,5.388 0 0 1 5.388,5.39 5.388,5.388 0 0 1 -5.388,5.387 5.388,5.388 0 0 1 -5.39,-5.388 5.388,5.388 0 0 1 5.39,-5.389 z m 10e-4,1.342 v 0.65 h 0.001 c 1.208,0 1.44,1.69 1.44,3.24 0,1.345 -0.12,3.345 -1.44,3.345 v 0.751 c 2.247,0 3.78,-1.918 3.78,-4.03 0,-2.393 -1.618,-3.956 -3.78,-3.956 z"
     id="path4"
     inkscape:connector-curvature="0"
     style="fill:#2ca02c" />
</svg>

<svg xmlns="http://www.w3.org/2000/svg" width="48" height="48" viewBox="0 0 12.7 12.7"><path d="M6.33 9.6c1.32 0 1.44-2 1.44-3.35C7.78 4.7 7.54 3 6.35 3 5.13 3 4.93 4.8 4.93 6.25c0 1.33.1 3.34 1.4 3.34zm0-7.24c2.17 0 3.78 1.56 3.78 3.95 0 2.12-1.53 4.03-3.77 4.03-2.23 0-3.75-1.91-3.75-4.03 0-2.37 1.56-3.95 3.75-3.95z" clip-rule="evenodd" opacity=".75" fill="red" fill-rule="evenodd"/><path d="M6.35.08A6.27 6.27 0 0 0 .08 6.35a6.27 6.27 0 0 0 6.27 6.27 6.27 6.27 0 0 0 6.27-6.27A6.27 6.27 0 0 0 6.35.08zm-.02.94a5.39 5.39 0 0 1 5.4 5.38 5.39 5.39 0 0 1-5.4 5.4A5.39 5.39 0 0 1 .94 6.4a5.39 5.39 0 0 1 5.4-5.39zm0 1.34V3C7.54 3 7.78 4.7 7.78 6.25c0 1.34-.11 3.34-1.43 3.34v.75c2.24 0 3.78-1.91 3.78-4.03 0-2.39-1.62-3.95-3.78-3.95z" fill="#2ca02c"/></svg>
